X:1
T:Mississippi Sawyer
C:Traditional
M:4/4
L:1/4
%%continueall 1
%%partsbox 1
K:D
P:A
|F
|:"D"A A/2F/2 A A/2F/2|A A/2F/2 B/2A/2 A|"G"G G/2E/2 G G/2E/2|G G/2E/2 A E/2E/2
|"D"F F/2D/2 F F/2D/2|F F/2D/2 "G"G/2F/2 F|"A"E G F E
|1 "D"D2 D F:|2 "D"D2 D A,|
P:B
|:"D"D F/2F/2 D F/2F/2|D F/2F/2 A2|"A"C E/2E/2 C E/2E/2|C E/2E/2 "A7"G2
|"D"D F/2F/2 D F/2F/2|D F/2F/2 A2|"A"E G/2G/2 F E
|1 "D"D2 D A,:|2 "D"D2 D||

